icons/evolvere-blue-folders-flat-vivid-dark-fallback/actions/64/window-new.svg

<?xml version="1.0" encoding="UTF-8" standalone="no"?>
<!-- Created with Inkscape (http://www.inkscape.org/) -->

<svg
   xmlns:dc="http://purl.org/dc/elements/1.1/"
   xmlns:cc="http://creativecommons.org/ns#"
   xmlns:rdf="http://www.w3.org/1999/02/22-rdf-syntax-ns#"
   xmlns:svg="http://www.w3.org/2000/svg"
   xmlns="http://www.w3.org/2000/svg"
   xmlns:sodipodi="http://sodipodi.sourceforge.net/DTD/sodipodi-0.dtd"
   xmlns:inkscape="http://www.inkscape.org/namespaces/inkscape"
   width="64"
   height="64"
   id="svg13094"
   version="1.1"
   inkscape:version="0.91+devel r"
   sodipodi:docname="window-new.svg">
  <sodipodi:namedview
     id="base"
     pagecolor="#ffffff"
     bordercolor="#666666"
     borderopacity="1.0"
     inkscape:pageopacity="0"
     inkscape:pageshadow="2"
     inkscape:zoom="11.313709"
     inkscape:cx="32.006133"
     inkscape:cy="33.46899"
     inkscape:document-units="px"
     inkscape:current-layer="svg13094"
     showgrid="true"
     inkscape:snap-bbox="true"
     inkscape:bbox-paths="true"
     inkscape:bbox-nodes="true"
     inkscape:snap-bbox-edge-midpoints="true"
     inkscape:snap-bbox-midpoints="true"
     inkscape:object-paths="true"
     inkscape:snap-intersection-paths="true"
     inkscape:object-nodes="true"
     inkscape:snap-smooth-nodes="true"
     inkscape:snap-midpoints="true"
     inkscape:snap-object-midpoints="true"
     inkscape:snap-center="true"
     showguides="false"
     inkscape:guide-bbox="true"
     inkscape:window-width="1920"
     inkscape:window-height="1023"
     inkscape:window-x="-10"
     inkscape:window-y="35"
     inkscape:window-maximized="1"
     inkscape:snap-global="true"
     fit-margin-top="0"
     fit-margin-left="0"
     fit-margin-right="0"
     fit-margin-bottom="0"
     showborder="true"
     inkscape:showpageshadow="false"
     inkscape:snap-page="true">
    <inkscape:grid
       type="xygrid"
       id="grid3075"
       empspacing="5"
       visible="true"
       enabled="true"
       snapvisiblegridlinesonly="true"
       originx="1.6362304e-08px"
       originy="18px" />
    <sodipodi:guide
       orientation="0,1"
       position="-11,30"
       id="guide9148" />
    <sodipodi:guide
       orientation="1,0"
       position="32,70"
       id="guide9150" />
  </sodipodi:namedview>
  <defs
     id="defs13096" />
  <metadata
     id="metadata13099">
    <rdf:RDF>
      <cc:Work
         rdf:about="">
        <dc:format>image/svg+xml</dc:format>
        <dc:type
           rdf:resource="http://purl.org/dc/dcmitype/StillImage" />
        <dc:title></dc:title>
      </cc:Work>
    </rdf:RDF>
  </metadata>
  <path
     id="path6538"
     d="m 0,2 0,32 0,28 2,2 30,0 30,0 2,-2 0,-28 0,-32 -32,0 z"
     style="color:#000000;display:inline;overflow:visible;visibility:visible;opacity:1;fill:#aeb4c3;fill-opacity:1;fill-rule:nonzero;stroke:none;stroke-width:2.28571415;stroke-linecap:butt;stroke-linejoin:miter;stroke-miterlimit:4;stroke-dasharray:none;stroke-dashoffset:0;stroke-opacity:1;marker:none;enable-background:accumulate"
     inkscape:connector-curvature="0"
     sodipodi:nodetypes="ccccccccccc" />
  <path
     style="color:#000000;display:inline;overflow:visible;visibility:visible;opacity:1;fill:#e7ecf0;fill-opacity:1;fill-rule:nonzero;stroke:none;stroke-width:1;stroke-linecap:butt;stroke-linejoin:miter;stroke-miterlimit:4;stroke-dasharray:none;stroke-dashoffset:0;stroke-opacity:1;marker:none;enable-background:accumulate"
     d="M 2,0 0,1 0,2 19.5625,2 39.125,2 64,2 64,1 62,0 39.125,0 19.5625,0 Z"
     id="path6688"
     inkscape:connector-curvature="0"
     sodipodi:nodetypes="ccccccccccc" />
  <path
     d="M 64,4 62,2 64,1 Z"
     id="path3028"
     style="opacity:1;fill:#ccd1db;fill-opacity:1;stroke:none;stroke-width:1;stroke-linecap:butt;stroke-linejoin:miter;stroke-miterlimit:4;stroke-dasharray:none;stroke-dashoffset:0;stroke-opacity:1;marker:none"
     inkscape:connector-curvature="0"
     sodipodi:nodetypes="cccc" />
  <path
     style="opacity:1;fill:#f2f5f7;fill-opacity:1;fill-rule:nonzero;stroke-width:1;stroke-linecap:butt;stroke-linejoin:miter;stroke-miterlimit:4;stroke-dasharray:none;stroke-dashoffset:0;stroke-opacity:1"
     d="M 0,1 0,4 2,2 Z"
     id="path4298"
     inkscape:connector-curvature="0"
     sodipodi:nodetypes="cccc" />
  <g
     id="g3023">
    <rect
       y="15"
       x="4"
       height="45"
       width="56"
       id="rect3011"
       style="color:#000000;fill:#ffffff;fill-opacity:0.53577815;fill-rule:nonzero;stroke:none;stroke-width:2.28571415;marker:none;visibility:visible;display:inline;overflow:visible;enable-background:accumulate;opacity:1;stroke-linecap:butt;stroke-linejoin:miter;stroke-miterlimit:4;stroke-dasharray:none;stroke-dashoffset:0;stroke-opacity:1" />
    <rect
       ry="1.5"
       rx="1.5"
       y="19"
       x="56"
       height="22"
       width="3"
       id="rect3802"
       style="color:#000000;fill:#00122b;fill-opacity:0.65860219;fill-rule:nonzero;stroke:none;stroke-width:1.00000001;marker:none;visibility:visible;display:inline;overflow:visible;enable-background:accumulate;opacity:1;stroke-linecap:butt;stroke-linejoin:miter;stroke-miterlimit:4;stroke-dasharray:none;stroke-dashoffset:0;stroke-opacity:1" />
    <rect
       transform="matrix(0,-1,1,0,0,0)"
       ry="1.5"
       rx="1.5"
       y="8"
       x="-59"
       height="22"
       width="3"
       id="rect3781"
       style="color:#000000;fill:#00122b;fill-opacity:0.65860219;fill-rule:nonzero;stroke:none;stroke-width:1.00000001;marker:none;visibility:visible;display:inline;overflow:visible;enable-background:accumulate;opacity:1;stroke-linecap:butt;stroke-linejoin:miter;stroke-miterlimit:4;stroke-dasharray:none;stroke-dashoffset:0;stroke-opacity:1" />
    <g
       transform="matrix(0.5625,0,0,0.5625,1.7324219,4)"
       inkscape:label="#g3851"
       id="active-center">
      <rect
         style="opacity:0.00100002;fill:#ffffff;fill-opacity:0.44581496;fill-rule:nonzero;stroke:none"
         id="rect3853"
         width="16"
         height="16"
         x="0"
         y="0" />
      <path
         style="font-size:medium;font-style:normal;font-variant:normal;font-weight:normal;font-stretch:normal;text-indent:0;text-align:start;text-decoration:none;line-height:normal;letter-spacing:normal;word-spacing:normal;text-transform:none;direction:ltr;block-progression:tb;writing-mode:lr-tb;text-anchor:start;baseline-shift:baseline;color:#000000;fill:#00122b;fill-opacity:0.65860219;stroke:none;stroke-width:1.7777778;marker:none;visibility:visible;display:inline;overflow:visible;enable-background:accumulate;font-family:Sans;-inkscape-font-specification:Sans;fill-rule:nonzero;opacity:1;stroke-linecap:butt;stroke-linejoin:miter;stroke-miterlimit:4;stroke-dasharray:none;stroke-dashoffset:0;stroke-opacity:1"
         d="M 5.46875,4.03125 4.03125,5.46875 6.5625,8 4.03125,10.53125 5.46875,11.96875 8,9.4375 l 2.53125,2.53125 1.4375,-1.4375 L 9.4375,8 11.96875,5.46875 10.53125,4.03125 8,6.5625 z"
         id="path3855"
         inkscape:connector-curvature="0"
         sodipodi:nodetypes="ccccccccccccc" />
    </g>
    <g
       transform="matrix(0.5625,0,0,0.5625,19.732422,4)"
       inkscape:label="#g3851"
       id="active-center-8">
      <rect
         style="opacity:0.00100002;fill:#ffffff;fill-opacity:0.44581496;fill-rule:nonzero;stroke:none"
         id="rect3853-9"
         width="16"
         height="16"
         x="0"
         y="0" />
      <path
         sodipodi:nodetypes="cccccccccc"
         inkscape:connector-curvature="0"
         id="path2994"
         d="m 5,5 0,6 6,0 0,-6 z M 7,7 9,7 9,9 7,9 z"
         style="font-size:medium;font-style:normal;font-variant:normal;font-weight:normal;font-stretch:normal;text-indent:0;text-align:start;text-decoration:none;line-height:normal;letter-spacing:normal;word-spacing:normal;text-transform:none;direction:ltr;block-progression:tb;writing-mode:lr-tb;text-anchor:start;baseline-shift:baseline;color:#000000;fill:#00122b;fill-opacity:0.65860219;stroke:none;stroke-width:1.7777778;marker:none;visibility:visible;display:inline;overflow:visible;enable-background:accumulate;font-family:Sans;-inkscape-font-specification:Sans;fill-rule:nonzero;opacity:1;stroke-linecap:butt;stroke-linejoin:miter;stroke-miterlimit:4;stroke-dasharray:none;stroke-dashoffset:0;stroke-opacity:1" />
    </g>
    <g
       transform="matrix(0.5625,0,0,0.5625,10.732422,4)"
       inkscape:label="#g3851"
       id="active-center-3">
      <rect
         style="opacity:0.00100002;fill:#ffffff;fill-opacity:0.44581496;fill-rule:nonzero;stroke:none"
         id="rect3853-8"
         width="16"
         height="16"
         x="0"
         y="0" />
      <path
         style="font-size:medium;font-style:normal;font-variant:normal;font-weight:normal;font-stretch:normal;text-indent:0;text-align:start;text-decoration:none;line-height:normal;letter-spacing:normal;word-spacing:normal;text-transform:none;direction:ltr;block-progression:tb;writing-mode:lr-tb;text-anchor:start;baseline-shift:baseline;color:#000000;fill:#00122b;fill-opacity:0.65860219;stroke:none;stroke-width:1.7777778;marker:none;visibility:visible;display:inline;overflow:visible;enable-background:accumulate;font-family:Sans;-inkscape-font-specification:Sans;fill-rule:nonzero;opacity:1;stroke-linecap:butt;stroke-linejoin:miter;stroke-miterlimit:4;stroke-dasharray:none;stroke-dashoffset:0;stroke-opacity:1"
         d="M 4,6.967068 4,9 12,9 12,6.967068 z"
         id="path3855-3"
         inkscape:connector-curvature="0"
         sodipodi:nodetypes="ccccc" />
    </g>
    <g
       transform="matrix(0.5625,0,0,0.5625,53,4)"
       inkscape:label="#g3851"
       id="active-center-86">
      <rect
         style="opacity:0.00100002;fill:#ffffff;fill-opacity:0.44581496;fill-rule:nonzero;stroke:none"
         id="rect3853-6"
         width="16"
         height="16"
         x="0"
         y="0" />
      <path
         style="font-size:medium;font-style:normal;font-variant:normal;font-weight:normal;font-stretch:normal;text-indent:0;text-align:start;text-decoration:none;line-height:normal;letter-spacing:normal;word-spacing:normal;text-transform:none;direction:ltr;block-progression:tb;writing-mode:lr-tb;text-anchor:start;baseline-shift:baseline;color:#000000;fill:#00122b;fill-opacity:0.65860219;stroke:none;stroke-width:1.7777778;marker:none;visibility:visible;display:inline;overflow:visible;enable-background:accumulate;font-family:Sans;-inkscape-font-specification:Sans;fill-rule:nonzero;opacity:1;stroke-linecap:butt;stroke-linejoin:miter;stroke-miterlimit:4;stroke-dasharray:none;stroke-dashoffset:0;stroke-opacity:1"
         d="m 6.5625,6.734375 -2.53125,2.53125 1.4375,1.4375 L 8,8.171875 l 2.53125,2.53125 1.4375,-1.4375 L 9.4375,6.734375 8,5.296875 z"
         id="path3855-2"
         inkscape:connector-curvature="0"
         sodipodi:nodetypes="ccccccccc" />
    </g>
    <g
       transform="translate(37,1)"
       id="g3053">
      <path
         inkscape:connector-curvature="0"
         id="path3883"
         d="M 22.25,42.75 C 23.955463,44.687682 25,47.215786 25,50 25,56.075128 20.075132,61 14,61 11.215784,61 8.6876817,59.955463 6.75,58.25 8.7658399,60.540321 11.709084,62 15,62 c 6.075132,0 11,-4.924872 11,-11 0,-3.290914 -1.459679,-6.234159 -3.75,-8.25 z"
         style="color:#000000;fill:#0b0e11;fill-opacity:0.0786219;fill-rule:nonzero;stroke:none;stroke-width:1;marker:none;visibility:visible;display:inline;overflow:visible;enable-background:accumulate" />
      <path
         style="color:#000000;fill:#ffffff;fill-opacity:1;fill-rule:nonzero;stroke:none;stroke-width:1;marker:none;visibility:visible;display:inline;overflow:visible;enable-background:accumulate;opacity:1;stroke-linecap:butt;stroke-linejoin:miter;stroke-miterlimit:4;stroke-dasharray:none;stroke-dashoffset:0;stroke-opacity:1"
         d="M 14,39 C 7.9248674,39 3,43.924872 3,50 3,56.075128 7.9248674,61 14,61 20.075132,61 25,56.075128 25,50 25,43.924872 20.075132,39 14,39 z"
         id="path3851"
         inkscape:connector-curvature="0" />
      <path
         inkscape:connector-curvature="0"
         style="color:#000000;fill:#8cb72e;fill-opacity:1;fill-rule:nonzero;stroke:none;stroke-width:1;marker:none;visibility:visible;display:inline;overflow:visible;enable-background:accumulate;opacity:1;stroke-linecap:butt;stroke-linejoin:miter;stroke-miterlimit:4;stroke-dasharray:none;stroke-dashoffset:0;stroke-opacity:1"
         d="m 14,41 c -4.970563,0 -9,4.02944 -9,9 0,4.97056 4.029437,9 9,9 4.970562,0 9,-4.02944 9,-9 0,-4.97056 -4.029438,-9 -9,-9 z"
         id="path3069" />
      <path
         inkscape:connector-curvature="0"
         style="color:#000000;fill:#ffffff;fill-opacity:1;fill-rule:nonzero;stroke:none;stroke-width:1;marker:none;visibility:visible;display:inline;overflow:visible;enable-background:accumulate;opacity:1;stroke-linecap:butt;stroke-linejoin:miter;stroke-miterlimit:4;stroke-dasharray:none;stroke-dashoffset:0;stroke-opacity:1"
         d="m 13,44 2,0 0,5 5,0 0,2 -5,0 0,5 -2,0 0,-5 -5,0 0,-2 5,0 0,-5 z"
         id="path3872" />
      <path
         inkscape:connector-curvature="0"
         id="path3054-1"
         d="m 15,45 0,4 1,0 0,-4 -1,0 z m 5,5 0,1 -5,0 0,5 -1,0 0,1 2,0 0,-5 5,0 0,-2 -1,0 z m -11,1 0,1 4,0 0,-1 -4,0 z"
         style="color:#000000;fill:#0b0e11;fill-opacity:0.0786219;fill-rule:nonzero;stroke:none;stroke-width:1;marker:none;visibility:visible;display:inline;overflow:visible;enable-background:accumulate;opacity:1;stroke-linecap:butt;stroke-linejoin:miter;stroke-miterlimit:4;stroke-dasharray:none;stroke-dashoffset:0;stroke-opacity:1" />
    </g>
  </g>
</svg>

<svg xmlns="http://www.w3.org/2000/svg" viewBox="0 0 64 64" xmlns:xlink="http://www.w3.org/1999/xlink"><defs><path id="0" d="m0 0h16v16h-16z" fill-opacity=".446" fill="#fff" opacity=".001"/></defs><g color="#000"><path d="m0 2v32 28l2 2h30 30l2-2v-28-32h-32z" fill="#aeb4c3"/><path d="m2 0l-2 1v1h19.563 19.563 24.875v-1l-2-1h-22.875-19.563" fill="#e7ecf0"/></g><path d="m64 4l-2-2 2-1" fill="#ccd1db"/><path d="m0 1v3l2-2" fill="#f2f5f7"/><g color="#000"><path fill-opacity=".536" fill="#fff" d="m4 15h56v45h-56z"/><g fill="#00122b" fill-opacity=".659"><rect rx="1.5" y="19" x="56" height="22" width="3"/><rect transform="matrix(0-1 1 0 0 0)" rx="1.5" y="8" x="-59" height="22" width="3"/></g></g><g transform="matrix(.5625 0 0 .5625 1.732 4)"><use xlink:href="#0"/><path d="m5.469 4.03l-1.438 1.438 2.531 2.531-2.531 2.531 1.438 1.438 2.531-2.531 2.531 2.531 1.438-1.438-2.531-2.531 2.531-2.531-1.438-1.438-2.531 2.531z" fill-opacity=".659" color="#000" fill="#00122b"/></g><g transform="matrix(.5625 0 0 .5625 19.732 4)"><use xlink:href="#0"/><path d="m5 5v6h6v-6zm2 2h2v2h-2z" fill-opacity=".659" color="#000" fill="#00122b"/></g><g transform="matrix(.5625 0 0 .5625 10.732 4)"><use xlink:href="#0"/><path d="m4 6.967v2.033h8v-2.033z" fill-opacity=".659" color="#000" fill="#00122b"/></g><g transform="matrix(.5625 0 0 .5625 53 4)"><use xlink:href="#0"/><path d="m6.563 6.734l-2.531 2.531 1.438 1.438 2.531-2.531 2.531 2.531 1.438-1.438-2.531-2.531-1.438-1.438z" fill-opacity=".659" color="#000" fill="#00122b"/></g><g transform="translate(37 1)" color="#000"><path d="m22.25 42.75c1.705 1.938 2.75 4.466 2.75 7.25 0 6.075-4.925 11-11 11-2.784 0-5.312-1.045-7.25-2.75 2.02 2.29 4.959 3.75 8.25 3.75 6.075 0 11-4.925 11-11 0-3.291-1.46-6.234-3.75-8.25" fill="#0b0e11" fill-opacity=".079"/><path d="m14 39c-6.075 0-11 4.925-11 11 0 6.075 4.925 11 11 11 6.075 0 11-4.925 11-11 0-6.075-4.925-11-11-11" fill="#fff"/><path d="m14 41c-4.971 0-9 4.03-9 9 0 4.971 4.03 9 9 9 4.971 0 9-4.03 9-9 0-4.971-4.03-9-9-9" fill="#8cb72e"/><path d="m13 44h2v5h5v2h-5v5h-2v-5h-5v-2h5v-5" fill="#fff"/><path d="m15 45v4h1v-4h-1m5 5v1h-5v5h-1v1h2v-5h5v-2h-1m-11 1v1h4v-1h-4" fill-opacity=".079" fill="#0b0e11"/></g></svg>
